X: 21054
M: 2/4
L: 1/16
K: F
(cB) !segno!|:\
c2dc B2cB | A2BA G2cB |\
cfed cBAG | F2"^Fin."F2F2 H:|
ef |\
g2gf e2ed | c2c2 c2de |\
f2c2f2c2 | gfed cBAG |\
g2f2e2d2 | c2cd "^D.C."c4 !segno!|]


